src/assets/icons/show-icon.svg

<?xml version="1.0" encoding="UTF-8"?><svg version="1.1" width="35px" height="32px" viewBox="0 0 35.0 32.0" xmlns="http://www.w3.org/2000/svg" xmlns:xlink="http://www.w3.org/1999/xlink"><defs><clipPath id="i0"><path d="M3250,0 L3250,5350 L0,5350 L0,0 L3250,0 Z"></path></clipPath><clipPath id="i1"><path d="M9.38666667,0 C11.4631111,0 13.3404444,0.590222222 15.0186667,1.77066667 C16.6968889,2.95111111 17.9484444,4.49422222 18.7733333,6.4 C17.9484444,8.30577778 16.6968889,9.84888889 15.0186667,11.0293333 C13.3404444,12.2097778 11.4631111,12.8 9.38666667,12.8 C7.31022222,12.8 5.43288889,12.2097778 3.75466667,11.0293333 C2.07644444,9.84888889 0.824888889,8.30577778 0,6.4 C0.824888889,4.49422222 2.07644444,2.95111111 3.75466667,1.77066667 C5.43288889,0.590222222 7.31022222,0 9.38666667,0 Z M9.38666667,1.28 C7.66577778,1.28 6.08355556,1.74577778 4.64,2.67733333 C3.19644444,3.60888889 2.09066667,4.84977778 1.32266667,6.4 C2.09066667,7.95022222 3.19644444,9.19111111 4.64,10.1226667 C6.08355556,11.0542222 7.66577778,11.52 9.38666667,11.52 C11.1075556,11.52 12.6897778,11.0542222 14.1333333,10.1226667 C15.5768889,9.19111111 16.6755556,7.95022222 17.4293333,6.4 C16.6755556,4.84977778 15.5768889,3.60888889 14.1333333,2.67733333 C12.6897778,1.74577778 11.1075556,1.28 9.38666667,1.28 Z M9.38666667,2.77333333 C10.3964444,2.77333333 11.2533333,3.12533333 11.9573333,3.82933333 C12.6613333,4.53333333 13.0133333,5.39022222 13.0133333,6.4 C13.0133333,7.40977778 12.6613333,8.26666667 11.9573333,8.97066667 C11.2533333,9.67466667 10.3964444,10.0266667 9.38666667,10.0266667 C8.37688889,10.0266667 7.52,9.67466667 6.816,8.97066667 C6.112,8.26666667 5.76,7.40977778 5.76,6.4 C5.76,5.39022222 6.112,4.53333333 6.816,3.82933333 C7.52,3.12533333 8.37688889,2.77333333 9.38666667,2.77333333 Z M9.38666667,4.01066667 C8.71822222,4.01066667 8.15288889,4.24177778 7.69066667,4.704 C7.22844444,5.16622222 6.99733333,5.73155556 6.99733333,6.4 C6.99733333,7.06844444 7.22844444,7.63377778 7.69066667,8.096 C8.15288889,8.55822222 8.71822222,8.78933333 9.38666667,8.78933333 C10.0551111,8.78933333 10.6204444,8.55822222 11.0826667,8.096 C11.5448889,7.63377778 11.776,7.06844444 11.776,6.4 C11.776,5.73155556 11.5448889,5.16622222 11.0826667,4.704 C10.6204444,4.24177778 10.0551111,4.01066667 9.38666667,4.01066667 Z"></path></clipPath></defs><g transform="translate(-104.0 -2839.0)"><g clip-path="url(#i0)"><g transform="translate(20.0 2812.999999999999)"><g transform="translate(84.0 26.00000000000091)"><g transform="translate(8.109999999999891 9.999999999999977)"><g clip-path="url(#i1)"><polygon points="0,0 18.7733333,0 18.7733333,12.8 0,12.8 0,0" stroke="none" fill="#0481A0"></polygon></g></g></g></g></g></g></svg>

<svg width="19" height="13" viewBox="0 0 19 13" xmlns="http://www.w3.org/2000/svg">
    <defs>
        <clipPath id="isq2f2cdba">
            <path d="M3250 0v5350H0V0h3250z"/>
        </clipPath>
        <clipPath id="uahas4uvdb">
            <path d="M9.387 0c2.076 0 3.953.59 5.632 1.77 1.678 1.181 2.93 2.724 3.754 4.63-.825 1.906-2.076 3.449-3.754 4.63-1.679 1.18-3.556 1.77-5.632 1.77-2.077 0-3.954-.59-5.632-1.77C2.076 9.848.825 8.305 0 6.4c.825-1.906 2.076-3.449 3.755-4.63C5.433.59 7.31 0 9.387 0zm0 1.28c-1.721 0-3.303.466-4.747 1.397A9.22 9.22 0 0 0 1.323 6.4a9.22 9.22 0 0 0 3.317 3.723 8.579 8.579 0 0 0 4.747 1.397c1.72 0 3.303-.466 4.746-1.397A9.068 9.068 0 0 0 17.43 6.4a9.068 9.068 0 0 0-3.296-3.723A8.579 8.579 0 0 0 9.387 1.28zm0 1.493c1.01 0 1.866.352 2.57 1.056.704.704 1.056 1.561 1.056 2.571 0 1.01-.352 1.867-1.056 2.57-.704.705-1.56 1.057-2.57 1.057-1.01 0-1.867-.352-2.571-1.056C6.112 8.267 5.76 7.41 5.76 6.4c0-1.01.352-1.867 1.056-2.57.704-.705 1.56-1.057 2.57-1.057zm0 1.238c-.669 0-1.234.23-1.696.693A2.307 2.307 0 0 0 6.997 6.4c0 .668.231 1.234.694 1.696a2.307 2.307 0 0 0 1.696.693c.668 0 1.233-.23 1.696-.693a2.307 2.307 0 0 0 .693-1.696c0-.668-.231-1.234-.693-1.696a2.307 2.307 0 0 0-1.696-.693z"/>
        </clipPath>
    </defs>
    <g clip-path="url(#isq2f2cdba)" transform="translate(-112 -2939)">
        <g clip-path="url(#uahas4uvdb)" transform="translate(112.11 2939)">
            <path d="M0 0h18.773v12.8H0V0z"/>
        </g>
    </g>
</svg>
